X:1
T:Palmer (Pattison), SM
T:Palmer (Pattison), SM
T:John Nelson Pattison, 1868
T:Public Domain Courtesy of the Cyber Hymnal™
C:John Nelson Pattison, 1868
Z:Public Domain
Z:Courtesy of the Cyber Hymnal™
%%score ( 1 2 ) ( 3 4 )
L:1/8
M:2/2
K:Bb
V:1 treble 
V:2 treble 
V:3 bass 
V:4 bass 
V:1
 [DF]4 [DF]2 [DF]2 | [Fd]4 B2 A2 | [EG]6 [FB]2 | [Fc]4 [Fd]4 | (e2 c2) (d2 B2) | [FA]6 [Fc]2 | %6
 [FB]4 [Fe]4 | [Fd]2 [Fc]2 [FB]2 [F_A]2 | [EG]6 [FB]2 | [EF]4 (F2 d2) | (B2 A2) (G2 F2) | [DB]8 |] %12
V:2
 x8 | x4 F4 | x8 | x8 | F4 F4 | x8 | x8 | x8 | x8 | x4 D4 | E4 E4 | x8 |] %12
V:3
 [B,,B,]4 [B,,B,]2 [B,,B,]2 | [B,,B,]4 [D,B,]4 | [E,B,]6 [D,B,]2 | [C,A,]4 [B,,B,]4 | %4
 E4 ([B,,D]2 [D,F]2) | [F,C]6 [E,C]2 | [D,D]4 [C,A,]4 | [B,,B,]2 [C,A,]2 [D,B,]2 [D,B,]2 | %8
 [E,B,]6 [D,B,]2 | [C,A,]4 [B,,B,]4 | [F,C]4 [F,,A,]4 | [B,,F,]8 |] %12
V:4
 x8 | x8 | x8 | x8 | (C,2 A,,2) x4 | x8 | x8 | x8 | x8 | x8 | x8 | x8 |] %12

